public/integrations/activecampaign.svg

<?xml version="1.0" encoding="UTF-8"?>
<svg width="256px" height="391px" viewBox="0 0 256 391" version="1.1" xmlns="http://www.w3.org/2000/svg" xmlns:xlink="http://www.w3.org/1999/xlink" preserveAspectRatio="xMidYMid">
    <title>ActiveCampaign</title>
    <g>
        <path d="M1.27262883,-2.84217094e-14 L4.32189792,2.14204853 C13.8099129,8.74459812 236.507358,163.967515 242.719299,168.61702 C251.514298,174.79116 256,182.426933 256,191.284934 L256,195.682433 C255.899198,202.524388 253.442142,212.151007 242.719299,220.202589 L242.681498,220.22779 C237.515381,223.919673 184.93439,260.347098 129.266329,298.929173 C124.36507,302.32558 119.40788,305.76077 114.439063,309.20412 L111.125282,311.500559 C61.9597303,345.572363 12.6198159,379.77651 5.94733474,384.497711 L5.94733474,390.63405 L2.30585224,384.510312 C2.12944825,384.195304 1.96564453,383.930698 2.15464882,383.502289 L2.04124625,383.502289 L2.04124625,351.472363 C2.04124625,340.547916 3.25087365,335.293596 15.4101491,327.191613 C20.5896225,323.86287 64.9397948,293.237209 109.989121,262.064365 L115.289947,258.39606 C156.802003,229.666506 197.626531,201.363146 207.652705,194.422405 C186.484225,179.717872 27.7962298,69.5535758 16.9221834,61.5901954 L15.6369543,60.6577743 C7.59797214,54.8364424 1.27262883,50.2499385 1.27262883,38.1284638 L1.27262883,-2.84217094e-14 Z M21.8614953,111.361323 C32.5969385,118.266279 136.423291,190.314712 137.469115,191.058129 L139.825368,192.683565 L137.431314,194.283802 C137.431314,194.283802 130.412955,198.958508 122.625978,204.401831 C115.960427,209.290742 109.723286,211.735197 103.523945,211.735197 C98.0176207,211.735197 92.5616971,209.819954 86.8159669,206.002067 C80.6952523,201.916047 63.4532434,190.021458 46.000469,177.937961 L43.6202635,176.289756 C22.2051,161.458254 1.21945563,146.863887 0.831618841,146.591721 L-2.84217094e-14,146.012108 L-2.84217094e-14,121.542354 C-2.84217094e-14,115.922626 2.41925481,111.474726 6.66555102,109.320077 C11.2142541,107.001624 16.8969828,107.757641 21.8614953,111.361323 Z" fill="#004CFF"></path>
    </g>
</svg>

<svg xmlns="http://www.w3.org/2000/svg" width="256" height="391" preserveAspectRatio="xMidYMid"><title>ActiveCampaign</title><path fill="#004cff" d="m1.273 0 3.049 2.142c9.488 6.603 232.185 161.826 238.397 166.475 8.795 6.174 13.281 13.81 13.281 22.668v4.397c-.1 6.842-2.558 16.469-13.28 24.52l-.039.026c-5.166 3.692-57.747 40.12-113.415 78.701-4.9 3.397-9.858 6.832-14.827 10.275l-3.314 2.297C61.96 345.572 12.62 379.777 5.947 384.498v6.136l-3.641-6.124c-.177-.315-.34-.58-.151-1.008H2.04v-32.03c0-10.924 1.21-16.178 13.37-24.28 5.179-3.33 49.529-33.955 94.578-65.128l5.3-3.668c41.513-28.73 82.338-57.033 92.364-63.974C186.484 179.718 27.796 69.554 16.923 61.59l-1.286-.932C7.598 54.836 1.273 50.25 1.273 38.128zM21.86 111.361c10.736 6.905 114.562 78.954 115.608 79.697l2.356 1.626-2.394 1.6s-7.018 4.675-14.805 10.118c-6.666 4.889-12.903 7.333-19.102 7.333-5.506 0-10.962-1.915-16.708-5.733-6.12-4.086-23.363-15.98-40.816-28.064l-2.38-1.648A27213 27213 0 0 1 .832 146.592l-.832-.58v-24.47c0-5.62 2.42-10.067 6.666-12.222 4.548-2.318 10.231-1.562 15.195 2.041"/></svg>
